elementary-add/apps/48/gufw.svg

<?xml version="1.0" encoding="UTF-8" standalone="no"?>
<!-- Created with Inkscape (http://www.inkscape.org/) -->

<svg
   xmlns:dc="http://purl.org/dc/elements/1.1/"
   xmlns:cc="http://creativecommons.org/ns#"
   xmlns:rdf="http://www.w3.org/1999/02/22-rdf-syntax-ns#"
   xmlns:svg="http://www.w3.org/2000/svg"
   xmlns="http://www.w3.org/2000/svg"
   xmlns:xlink="http://www.w3.org/1999/xlink"
   xmlns:sodipodi="http://sodipodi.sourceforge.net/DTD/sodipodi-0.dtd"
   xmlns:inkscape="http://www.inkscape.org/namespaces/inkscape"
   version="1.1"
   width="48"
   height="48"
   id="svg4061"
   inkscape:version="0.48.4 r9939"
   sodipodi:docname="preferences-system-power.svg">
  <sodipodi:namedview
     pagecolor="#ffffff"
     bordercolor="#666666"
     borderopacity="1"
     objecttolerance="10"
     gridtolerance="10"
     guidetolerance="10"
     inkscape:pageopacity="0"
     inkscape:pageshadow="2"
     inkscape:window-width="1600"
     inkscape:window-height="845"
     id="namedview35"
     showgrid="false"
     inkscape:zoom="4.9166667"
     inkscape:cx="-9.6610169"
     inkscape:cy="24"
     inkscape:window-x="0"
     inkscape:window-y="30"
     inkscape:window-maximized="1"
     inkscape:current-layer="svg4061" />
  <defs
     id="defs4063">
    <linearGradient
       x1="71.204407"
       y1="15.369057"
       x2="71.204407"
       y2="40.495617"
       id="linearGradient3177"
       xlink:href="#linearGradient4806-2"
       gradientUnits="userSpaceOnUse"
       gradientTransform="matrix(1.6169806,0,0,1.6169806,-92.707374,-21.060237)" />
    <linearGradient
       id="linearGradient4806-2">
      <stop
         id="stop4808-4"
         style="stop-color:#ffffff;stop-opacity:1"
         offset="0" />
      <stop
         id="stop4810-0"
         style="stop-color:#ffffff;stop-opacity:0.23529412"
         offset="0.42447853" />
      <stop
         id="stop4812-8"
         style="stop-color:#ffffff;stop-opacity:0.15686275"
         offset="0.82089913" />
      <stop
         id="stop4814-0"
         style="stop-color:#ffffff;stop-opacity:0.39215687"
         offset="1" />
    </linearGradient>
    <radialGradient
       cx="15.026252"
       cy="8.6257601"
       r="19.99999"
       fx="4.4589653"
       fy="8.5088921"
       id="radialGradient4013"
       xlink:href="#linearGradient3846"
       gradientUnits="userSpaceOnUse"
       gradientTransform="matrix(-3.4973212e-8,1.8854921,-1.7764068,-5.4722636e-8,39.140041,-7.993163)" />
    <linearGradient
       id="linearGradient3846">
      <stop
         id="stop3848"
         style="stop-color:#d1ffcb;stop-opacity:1;"
         offset="0" />
      <stop
         id="stop3850"
         style="stop-color:#ccfd76;stop-opacity:1;"
         offset="0.26238" />
      <stop
         id="stop3852"
         style="stop-color:#a5f940;stop-opacity:1;"
         offset="0.66093999" />
      <stop
         id="stop3854"
         style="stop-color:#6de420;stop-opacity:1;"
         offset="1" />
    </linearGradient>
    <radialGradient
       cx="23.896"
       cy="3.99"
       r="20.396999"
       fx="23.896"
       fy="3.99"
       id="radialGradient4201"
       xlink:href="#radialGradient3093-0-3-6-6"
       gradientUnits="userSpaceOnUse"
       gradientTransform="matrix(0,2.8885219,-3.8127977,0,39.21344,-65.949504)" />
    <radialGradient
       cx="23.896"
       cy="3.99"
       r="20.396999"
       id="radialGradient3093-0-3-6-6"
       gradientUnits="userSpaceOnUse"
       gradientTransform="matrix(0,1.2316483,-1.625754,0,18.486966,-28.721977)">
      <stop
         id="stop3244-9-33-7-0-9"
         style="stop-color:#ffffff;stop-opacity:1"
         offset="0" />
      <stop
         id="stop3246-3-5-0-8-5"
         style="stop-color:#dddddd;stop-opacity:1"
         offset="0.26238" />
      <stop
         id="stop3248-1-7-8-8-1"
         style="stop-color:#abacae;stop-opacity:1"
         offset="0.66093999" />
      <stop
         id="stop3250-9-3-0-5-1"
         style="stop-color:#89898b;stop-opacity:1"
         offset="1" />
    </radialGradient>
    <linearGradient
       id="linearGradient3820-7-2-1">
      <stop
         id="stop3822-2-6-3"
         style="stop-color:#3d3d3d;stop-opacity:1"
         offset="0" />
      <stop
         id="stop3864-8-7-7"
         style="stop-color:#686868;stop-opacity:0.49803922"
         offset="0.5" />
      <stop
         id="stop3824-1-2-5"
         style="stop-color:#686868;stop-opacity:0"
         offset="1" />
    </linearGradient>
    <radialGradient
       cx="99.157013"
       cy="186.17059"
       r="62.769119"
       fx="99.157013"
       fy="186.17059"
       id="radialGradient4059"
       xlink:href="#linearGradient3820-7-2-1"
       gradientUnits="userSpaceOnUse"
       gradientTransform="matrix(0.27083381,0,0,0.08762273,-2.85507,25.187228)" />
    <linearGradient
       inkscape:collect="always"
       xlink:href="#linearGradient4806-2"
       id="linearGradient3026"
       gradientUnits="userSpaceOnUse"
       gradientTransform="matrix(1.6169806,0,0,1.6169806,-92.707374,-21.060237)"
       x1="71.204407"
       y1="15.369057"
       x2="71.204407"
       y2="40.495617" />
    <radialGradient
       inkscape:collect="always"
       xlink:href="#linearGradient3846"
       id="radialGradient3029"
       gradientUnits="userSpaceOnUse"
       gradientTransform="matrix(-3.4973212e-8,1.8854921,-1.7764068,-5.4722636e-8,39.140041,-7.993163)"
       cx="15.026252"
       cy="8.6257601"
       fx="4.4589653"
       fy="8.5088921"
       r="19.99999" />
    <radialGradient
       inkscape:collect="always"
       xlink:href="#radialGradient3093-0-3-6-6"
       id="radialGradient3032"
       gradientUnits="userSpaceOnUse"
       gradientTransform="matrix(0,2.8885219,-3.8127977,0,39.21344,-65.949504)"
       cx="23.896"
       cy="3.99"
       fx="23.896"
       fy="3.99"
       r="20.396999" />
    <radialGradient
       inkscape:collect="always"
       xlink:href="#linearGradient3820-7-2-1"
       id="radialGradient3035"
       gradientUnits="userSpaceOnUse"
       gradientTransform="matrix(0.27083381,0,0,0.08762273,-2.85507,25.187228)"
       cx="99.157013"
       cy="186.17059"
       fx="99.157013"
       fy="186.17059"
       r="62.769119" />
  </defs>
  <metadata
     id="metadata4066">
    <rdf:RDF>
      <cc:Work
         rdf:about="">
        <dc:format>image/svg+xml</dc:format>
        <dc:type
           rdf:resource="http://purl.org/dc/dcmitype/StillImage" />
        <dc:title></dc:title>
      </cc:Work>
    </rdf:RDF>
  </metadata>
  <path
     style="fill:url(#radialGradient3035);fill-opacity:1;stroke:none"
     id="path3818-0-5"
     inkscape:connector-curvature="0"
     d="m 41,41.5 a 17,5.4999999 0 0 1 -34,0 17,5.4999999 0 1 1 34,0 z" />
  <path
     style="color:#000000;fill:url(#radialGradient3032);fill-opacity:1;fill-rule:nonzero;stroke:none;stroke-width:0.99999994;marker:none;visibility:visible;display:inline;overflow:visible;enable-background:accumulate"
     id="path2555-7-2"
     inkscape:connector-curvature="0"
     d="M 24,3.5000009 C 12.68881,3.5000009 3.5,12.688807 3.5,24 3.5,35.311193 12.68881,44.500003 24,44.5 35.31119,44.5 44.50001,35.311193 44.5,24 44.5,12.688807 35.31119,3.5000009 24,3.5000009 z" />
  <path
     style="color:#000000;fill:url(#radialGradient3029);fill-opacity:1;fill-rule:nonzero;stroke:none;stroke-width:1;marker:none;visibility:visible;display:inline;overflow:visible;enable-background:accumulate"
     id="path2555-7-65"
     inkscape:connector-curvature="0"
     d="M 24,3.5000003 C 12.688809,3.5000003 3.5000005,12.688809 3.5000005,24 3.5000005,35.311193 12.688809,44.500004 24,44.500001 35.311191,44.500001 44.500008,35.311193 44.500001,24 44.500001,12.688809 35.311191,3.5000004 24,3.5000004 z" />
  <path
     style="opacity:0.8;color:#000000;fill:none;stroke:url(#linearGradient3026);stroke-width:1;stroke-linecap:round;stroke-linejoin:round;stroke-miterlimit:4;stroke-opacity:1;stroke-dasharray:none;stroke-dashoffset:0;marker:none;visibility:visible;display:inline;overflow:visible;enable-background:accumulate"
     id="path4176"
     inkscape:connector-curvature="0"
     d="M 43.5,24.000001 C 43.5,34.76955 34.76954,43.5 23.99999,43.5 13.23045,43.5 4.5,34.76955 4.5,24.000001 4.5,13.23045 13.23045,4.5000019 23.99999,4.5000019 34.76954,4.5000019 43.5,13.23045 43.5,24.000001 z" />
  <path
     style="opacity:0.50000000000000000;color:#000000;fill:none;stroke:#539800;stroke-width:0.99999987999999995;stroke-linecap:round;stroke-linejoin:round;stroke-miterlimit:4;stroke-opacity:1;stroke-dasharray:none;stroke-dashoffset:0;marker:none;visibility:visible;display:inline;overflow:visible;enable-background:accumulate"
     id="path2555-7-1-7"
     inkscape:connector-curvature="0"
     d="m 24,3.500115 c -11.31113,0 -20.499885,9.188754 -20.499885,20.499884 0,11.311131 9.188755,20.499891 20.499885,20.499887 11.31113,0 20.4999,-9.188756 20.499886,-20.499887 C 44.499886,12.688869 35.31113,3.5001149 24,3.5001149 z" />
  <g
     id="g3"
     transform="matrix(0.30401563,0,0,0.30401563,8.6258705,9.3877554)"
     style="fill:#333333">
    <g
       id="g3037"
       style="fill:#333333">
      <path
         inkscape:connector-curvature="0"
         id="path5"
         d="M 50,18.454 C 49.17,19.085 37.79,27.552 23.195,30.474 21.271,64.154 49.982,81.59 50,81.58 50.018,81.59 78.729,64.154 76.805,30.473 62.21,27.552 50,18.454 50,18.454 z"
         style="fill:#333333" />
      <path
         inkscape:connector-curvature="0"
         id="path7"
         d="M 86.295,25.047 C 86.236,24.024 85.494,23.17 84.489,22.968 66.691,19.405 51.495,8.215 51.345,8.103 50.541,7.504 49.437,7.509 48.638,8.117 c -0.599,0.456 -14.881,11.2 -33.127,14.852 -1.005,0.201 -1.747,1.056 -1.806,2.079 -1.462,25.592 10.546,44.003 20.877,54.94 3.877,4.105 7.515,7.14 9.885,8.962 1.359,1.045 2.457,1.813 3.138,2.273 1.272,0.86 1.638,1.106 2.34,1.119 0.029,0.001 0.058,0.001 0.086,0.001 0.692,0 1.11,-0.279 2.212,-1.018 0.597,-0.4 1.562,-1.067 2.767,-1.978 2.097,-1.583 5.34,-4.219 8.883,-7.786 6.658,-6.701 11.957,-14.163 15.75,-22.177 5.1,-10.772 7.338,-22.325 6.652,-34.337 z M 66.579,71.794 C 59.745,80.364 52.681,85.585 50,87.408 47.319,85.585 40.256,80.365 33.419,71.79 22.724,58.376 17.582,43.32 18.122,27.014 33.527,23.535 45.988,15.488 50.011,12.675 c 4.079,2.809 16.754,10.909 31.867,14.338 0.54,16.308 -4.602,31.366 -15.299,44.781 z"
         style="fill:#333333" />
    </g>
  </g>
</svg>

<?xml version="1.0" encoding="UTF-8" standalone="no"?>
<!-- Created with Inkscape (http://www.inkscape.org/) -->
<svg id="svg4061" xmlns:rdf="http://www.w3.org/1999/02/22-rdf-syntax-ns#" xmlns="http://www.w3.org/2000/svg" height="48" width="48" version="1.1" xmlns:cc="http://creativecommons.org/ns#" xmlns:xlink="http://www.w3.org/1999/xlink" xmlns:dc="http://purl.org/dc/elements/1.1/">
 <defs id="defs4063">
  <linearGradient id="linearGradient3026" y2="40.496" gradientUnits="userSpaceOnUse" x2="71.204" gradientTransform="matrix(1.617 0 0 1.617 -92.707 -21.06)" y1="15.369" x1="71.204">
   <stop id="stop4808-4" stop-color="#fff" offset="0"/>
   <stop id="stop4810-0" stop-color="#fff" stop-opacity=".23529" offset=".42448"/>
   <stop id="stop4812-8" stop-color="#fff" stop-opacity=".15686" offset=".82090"/>
   <stop id="stop4814-0" stop-color="#fff" stop-opacity=".39216" offset="1"/>
  </linearGradient>
  <radialGradient id="radialGradient3029" fx="4.459" fy="8.5089" gradientUnits="userSpaceOnUse" cy="8.6258" cx="15.026" gradientTransform="matrix(-3.4973e-8 1.8855 -1.7764 -5.4723e-8 39.14 -7.9932)" r="20">
   <stop id="stop3848" stop-color="#d1ffcb" offset="0"/>
   <stop id="stop3850" stop-color="#ccfd76" offset=".26238"/>
   <stop id="stop3852" stop-color="#a5f940" offset=".66094"/>
   <stop id="stop3854" stop-color="#6de420" offset="1"/>
  </radialGradient>
  <radialGradient id="radialGradient3032" gradientUnits="userSpaceOnUse" cy="3.99" cx="23.896" gradientTransform="matrix(0 2.8885 -3.8128 0 39.213 -65.95)" r="20.397">
   <stop id="stop3244-9-33-7-0-9" stop-color="#fff" offset="0"/>
   <stop id="stop3246-3-5-0-8-5" stop-color="#ddd" offset=".26238"/>
   <stop id="stop3248-1-7-8-8-1" stop-color="#abacae" offset=".66094"/>
   <stop id="stop3250-9-3-0-5-1" stop-color="#89898b" offset="1"/>
  </radialGradient>
  <radialGradient id="radialGradient3035" gradientUnits="userSpaceOnUse" cy="186.17" cx="99.157" gradientTransform="matrix(.27083 0 0 .087623 -2.8551 25.187)" r="62.769">
   <stop id="stop3822-2-6-3" stop-color="#3d3d3d" offset="0"/>
   <stop id="stop3864-8-7-7" stop-color="#686868" stop-opacity=".49804" offset=".5"/>
   <stop id="stop3824-1-2-5" stop-color="#686868" stop-opacity="0" offset="1"/>
  </radialGradient>
 </defs>
 <metadata id="metadata4066">
  <rdf:RDF>
   <cc:Work rdf:about="">
    <dc:format>image/svg+xml</dc:format>
    <dc:type rdf:resource="http://purl.org/dc/dcmitype/StillImage"/>
    <dc:title/>
   </cc:Work>
  </rdf:RDF>
 </metadata>
 <path id="path3818-0-5" d="m41 41.5a17 5.5 0 0 1 -34 0 17 5.5 0 1 1 34 0z" fill="url(#radialGradient3035)"/>
 <path id="path2555-7-2" style="color:#000000" d="m24 3.5c-11.311 0-20.5 9.189-20.5 20.5s9.189 20.5 20.5 20.5 20.5-9.189 20.5-20.5-9.189-20.5-20.5-20.5z" fill="url(#radialGradient3032)"/>
 <path id="path2555-7-65" style="color:#000000" d="m24 3.5c-11.311 0-20.5 9.189-20.5 20.5s9.189 20.5 20.5 20.5 20.5-9.189 20.5-20.5-9.189-20.5-20.5-20.5z" fill="url(#radialGradient3029)"/>
 <path id="path4176" opacity=".8" stroke-linejoin="round" style="color:#000000" d="m43.5 24c0 10.77-8.73 19.5-19.5 19.5s-19.5-8.73-19.5-19.5 8.73-19.5 19.5-19.5 19.5 8.73 19.5 19.5z" stroke="url(#linearGradient3026)" stroke-linecap="round" fill="none"/>
 <path id="path2555-7-1-7" opacity=".5" stroke-linejoin="round" style="color:#000000" d="m24 3.5001c-11.311 0-20.5 9.1888-20.5 20.5s9.1888 20.5 20.5 20.5 20.5-9.1888 20.5-20.5-9.189-20.5-20.5-20.5z" stroke="#539800" stroke-linecap="round" fill="none"/>
 <g id="g3" fill="#333" transform="matrix(.30402 0 0 .30402 8.6259 9.3878)">
  <g id="g3037" fill="#333">
   <path id="path5" d="m50 18.454c-0.83 0.631-12.21 9.098-26.805 12.02-1.924 33.68 26.787 51.116 26.805 51.106 0.018 0.01 28.729-17.426 26.805-51.107-14.595-2.921-26.805-12.019-26.805-12.019z"/>
   <path id="path7" d="m86.295 25.047c-0.059-1.023-0.801-1.877-1.806-2.079-17.798-3.563-32.994-14.753-33.144-14.865-0.804-0.599-1.908-0.594-2.707 0.014-0.599 0.456-14.881 11.2-33.127 14.852-1.005 0.201-1.747 1.056-1.806 2.079-1.462 25.592 10.546 44.003 20.877 54.94 3.877 4.105 7.515 7.14 9.885 8.962 1.359 1.045 2.457 1.813 3.138 2.273 1.272 0.86 1.638 1.106 2.34 1.119 0.029 0.001 0.058 0.001 0.086 0.001 0.692 0 1.11-0.279 2.212-1.018 0.597-0.4 1.562-1.067 2.767-1.978 2.097-1.583 5.34-4.219 8.883-7.786 6.658-6.701 11.957-14.163 15.75-22.177 5.1-10.772 7.338-22.325 6.652-34.337zm-19.716 46.747c-6.834 8.57-13.898 13.791-16.579 15.614-2.681-1.823-9.744-7.043-16.581-15.618-10.695-13.414-15.837-28.47-15.297-44.776 15.405-3.479 27.866-11.526 31.889-14.339 4.079 2.809 16.754 10.909 31.867 14.338 0.54 16.308-4.602 31.366-15.299 44.781z"/>
  </g>
 </g>
</svg>
